content/packer/v1.10.x/img/integrations/vmware.svg

<svg width="100px" height="17px" viewBox="0 0 100 17" version="1.1" xmlns="http://www.w3.org/2000/svg" xmlns:xlink="http://www.w3.org/1999/xlink">
    <desc>VM Ware Logo</desc>
    <defs>
        <polygon id="path-1" points="7.20994469e-21 0.236160236 7.20994469e-21 16.0310345 37.4537057 16.0310345 37.4537057 0.236160236 0 0.236160236"></polygon>
    </defs>
    <g id="Page-1" stroke="none" stroke-width="1" fill="none" fill-rule="evenodd">
        <g id="vmware">
            <path d="M58.4103568,0.870619748 C57.8235607,0.870619748 57.5197888,1.27306509 57.3809368,1.73797792 L53.7026886,12.6902405 L50.0861525,1.76506559 C49.9196365,1.24653024 49.5578765,0.870619748 48.9721444,0.870619748 L48.8588284,0.870619748 C48.3050165,0.870619748 47.9703884,1.24653024 47.8044045,1.76506559 L44.1575443,12.6902405 L40.5362202,1.79491731 C40.3702361,1.24708304 40.0074121,0.871172558 39.4498761,0.871172558 C38.8114761,0.871172558 38.3661921,1.39136633 38.3661921,1.9397534 C38.3661921,2.14208169 38.4491841,2.37315608 38.5050441,2.5478439 L42.8743603,15.1917038 C43.0988643,15.8539696 43.5425523,16.201134 44.0697643,16.201134 L44.1282844,16.201134 C44.6836923,16.201134 45.1023763,15.8539696 45.2976204,15.1917038 L48.9173485,4.44729749 L52.5062206,15.1917038 C52.7025286,15.8539696 53.1212126,16.201134 53.6782166,16.201134 L53.7617407,16.201134 C54.2634167,16.201134 54.7071047,15.8539696 54.9316087,15.1917038 L59.3296528,2.518545 C59.3839168,2.34275156 59.4685049,2.11222999 59.4685049,1.9104545 C59.4685049,1.3598562 59.0221568,0.870619748 58.4103568,0.870619748" id="Fill-1" fill="#000000" fill-rule="nonzero"></path>
            <path d="M81.837084,0.871448963 C80.280984,0.871448963 77.9327359,2.04727486 76.8740559,4.53934027 L76.8740559,1.97375119 C76.8740559,1.33470336 76.4016398,0.842150057 75.7855838,0.842150057 C75.2009158,0.842150057 74.7274357,1.36344946 74.7274357,1.97375119 L74.7284997,15.0515666 C74.7284997,15.6856391 75.2019797,16.1809565 75.8164397,16.1809565 C76.4293039,16.1809565 76.8751198,15.6602098 76.8751198,15.0515666 L76.8751198,9.97014122 C76.8751198,5.65159308 79.1589959,3.47684034 81.9488041,3.12967594 C82.5116601,3.04233204 82.8994881,2.61003497 82.8994881,2.00028605 C82.8994881,1.36344946 82.4813361,0.871448963 81.837084,0.871448963" id="Fill-3" fill="#000000" fill-rule="nonzero"></path>
            <path d="M84.8721973,7.74569091 C85.1424533,4.84731048 87.0001973,2.69798697 89.4591015,2.69798697 C92.2744455,2.69798697 93.7502136,5.04742752 93.9704616,7.74569091 L84.8721973,7.74569091 Z M89.5160255,0.832254767 C85.6090173,0.832254767 82.7388773,4.27404698 82.7388773,8.54671194 L82.7388773,8.60586256 C82.7388773,13.1930761 85.9080014,16.3219782 89.7894735,16.3219782 C92.1925175,16.3219782 93.7789416,15.4291907 95.1163897,14.0830995 C95.3377016,13.8840881 95.4467617,13.6253732 95.4467617,13.3683168 C95.4467617,12.8497814 95.0355257,12.4196956 94.5178896,12.4196956 C94.2705096,12.4196956 94.0800536,12.5341271 93.9156656,12.6761993 C92.8756055,13.6795485 91.5956136,14.3970953 89.8458655,14.3970953 C87.3284414,14.3970953 85.1711813,12.5910666 84.8732613,9.38145434 L95.0892576,9.38145434 C95.6052977,9.38145434 96.0739897,8.94971009 96.0739897,8.34548927 C96.0739897,4.4144606 93.6948856,0.832254767 89.5160255,0.832254767 L89.5160255,0.832254767 Z" id="Fill-5" fill="#000000" fill-rule="nonzero"></path>
            <path d="M70.1008444,10.5221216 C70.1008444,12.8886992 67.9302843,14.5648178 65.2905003,14.5648178 C63.3417842,14.5648178 61.6755602,13.466938 61.6755602,11.5895968 L61.6755602,11.5321046 C61.6755602,9.65642181 63.1789922,8.44134644 65.8725083,8.44134644 C67.6227883,8.44134644 69.0426964,8.75976473 70.1008444,9.07707741 L70.1008444,10.5221216 Z M66.0124242,0.873936606 C64.1786202,0.873936606 63.1108961,1.08621547 61.6952441,1.72471049 C61.3036921,1.9049264 61.1105761,2.19072894 61.1105761,2.65121929 C61.1105761,3.17030744 61.5569242,3.60481574 62.0580682,3.60481574 C62.1665961,3.60481574 62.3070442,3.57551684 62.4432361,3.51747184 C63.5024482,3.02712977 64.3446041,2.83585768 65.7905803,2.83585768 C68.4846284,2.83585768 70.0737124,4.22451524 70.0737124,6.90951119 L70.0737124,7.43191621 C68.7921244,7.05379449 67.4865963,6.793974 65.6501322,6.793974 C62.0091241,6.793974 59.5065961,8.47175096 59.5065961,11.6200013 L59.5065961,11.6780463 C59.5065961,14.7406111 62.2059641,16.3277273 64.8771363,16.3299386 C67.4020084,16.3299386 69.0714244,15.1181801 70.0742444,13.7582686 L70.0742444,15.1828588 C70.0742444,15.759992 70.4876084,16.2232463 71.0967485,16.2232463 C71.6840765,16.2232463 72.1288285,15.7594391 72.1288285,15.1253666 L72.1288285,6.88297634 C72.1288285,4.9752306 71.6276845,3.53129207 70.6530605,2.52020342 C69.5986364,1.42121805 68.0409403,0.873936606 66.0124242,0.873936606 L66.0124242,0.873936606 Z" id="Fill-7" fill="#000000" fill-rule="nonzero"></path>
            <g id="Group-11" transform="translate(0.000000, 0.316484)">
                <g id="Fill-9-Clipped">
                    <mask id="mask-2" fill="white">
                        <use xlink:href="#path-1"></use>
                    </mask>
                    <g id="path-1"></g>
                    <path d="M32.3151175,0.236160236 C29.5120094,0.236160236 27.7564094,2.25170383 27.7564094,2.25170383 C26.8238133,0.994614929 25.5374373,0.238924285 23.3610252,0.238924285 C21.0638491,0.238924285 19.0539531,2.25170383 19.0539531,2.25170383 C18.119761,0.994614929 16.530677,0.238924285 15.214509,0.238924285 C13.1790769,0.238924285 11.5623288,1.16874994 10.5765328,3.5126624 L7.66276866,10.648328 L3.92546854,1.49269633 C3.45464852,0.420245814 2.29116448,-0.0656737737 1.20428845,0.435724482 C0.116348404,0.938781165 -0.28371561,2.19200039 0.207320408,3.26500373 L4.77028456,13.5699264 C5.48795258,15.1846831 6.24392462,16.0310345 7.66276866,16.0310345 C9.17896871,16.0310345 9.84024474,15.109501 10.5568488,13.5699264 C10.5568488,13.5699264 14.5367409,4.56631739 14.5761088,4.47233977 C14.6165409,4.37670371 14.7447529,4.08592589 15.1496049,4.08868994 C15.4916809,4.09090117 15.7800249,4.37449247 15.7800249,4.75648386 L15.7800249,13.5610814 C15.7800249,14.9182288 16.504077,16.0310345 17.897917,16.0310345 C19.2906931,16.0310345 20.0434731,14.9182288 20.0434731,13.5610814 L20.0434731,6.35576187 C20.0434731,4.96655149 21.0016051,4.06436632 22.3076651,4.06436632 C23.6137252,4.06436632 24.4830132,4.99861445 24.4830132,6.35576187 L24.4830132,13.5610814 C24.4830132,14.9182288 25.2097253,16.0310345 26.6009053,16.0310345 C27.9931494,16.0310345 28.7501854,14.9182288 28.7501854,13.5610814 L28.7501854,6.35576187 C28.7501854,4.96655149 29.7045935,4.06436632 31.0111855,4.06436632 C32.3151175,4.06436632 33.1875976,4.99861445 33.1875976,6.35576187 L33.1875976,13.5610814 C33.1875976,14.9182288 33.9137776,16.0310345 35.3065536,16.0310345 C36.6982656,16.0310345 37.4537057,14.9182288 37.4537057,13.5610814 L37.4537057,5.3612575 C37.4537057,2.34733988 35.1214176,0.236160236 32.3151175,0.236160236" id="Fill-9" fill="#000000" fill-rule="nonzero" mask="url(#mask-2)"></path>
                </g>
            </g>
            <path d="M99.4626702,2.68941843 C99.4626702,3.51586869 98.8365062,4.20632781 98.0246742,4.20632781 C97.2027341,4.20632781 96.5840181,3.52637207 96.5840181,2.69936899 L96.5840181,2.68941843 C96.5840181,1.86739063 97.2101821,1.17527309 98.0246742,1.17527309 C98.8466142,1.17527309 99.4626702,1.85522883 99.4626702,2.68444314 L99.4626702,2.68941843 Z M98.0246742,0.831978362 C97.0351541,0.831978362 96.247794,1.68109382 96.247794,2.68941843 L96.247794,2.70158024 C96.247794,3.71266889 97.0207901,4.55017534 98.0246742,4.55017534 C99.0195142,4.55017534 99.8047462,3.70105989 99.8047462,2.68941843 L99.8047462,2.68167909 C99.8047462,1.67224887 99.0280262,0.831978362 98.0246742,0.831978362 L98.0246742,0.831978362 Z" id="Fill-12" fill="#000000" fill-rule="nonzero"></path>
            <path d="M98.3940417,2.37708103 C98.3940417,2.52965647 98.2929618,2.63026781 98.1078257,2.63026781 L98.1078257,2.62916219 L97.7226578,2.62916219 L97.7226578,2.1144965 L98.1009097,2.1144965 C98.2849818,2.1144965 98.3940417,2.20460446 98.3940417,2.37100013 L98.3940417,2.37708103 Z M98.1291058,1.76069839 L97.5359258,1.76069839 C97.4289938,1.76069839 97.3438737,1.8480423 97.3438737,1.95860421 L97.3449377,1.95860421 L97.3449377,3.36826855 C97.3449377,3.47772483 97.4295257,3.56506874 97.5364577,3.56506874 C97.6428577,3.56506874 97.7242537,3.47883045 97.7242537,3.36826855 L97.7242537,2.97909062 L98.0274937,2.97909062 L98.3961697,3.4639046 C98.4408578,3.52084397 98.4977818,3.56562155 98.5823697,3.56562155 C98.6728098,3.56562155 98.7616538,3.4937563 98.7616538,3.38430002 C98.7616538,3.32349097 98.7377138,3.28313588 98.7004738,3.23338301 L98.4387297,2.90169728 C98.6456777,2.81103653 98.7824017,2.63911276 98.7824017,2.3571799 L98.7824017,2.3516518 C98.7824017,2.18580893 98.7292018,2.04263126 98.6313138,1.94367835 C98.5243818,1.82648273 98.3525457,1.76069839 98.1291058,1.76069839 L98.1291058,1.76069839 Z" id="Fill-14" fill="#000000" fill-rule="nonzero"></path>
        </g>
    </g>
</svg>

<svg xmlns="http://www.w3.org/2000/svg" xmlns:xlink="http://www.w3.org/1999/xlink" width="100" height="17" viewBox="0 0 100 17">
  <desc>
    VM Ware Logo
  </desc>
  <defs>
    <path id="a" d="M0 .236v15.795h37.454V.236z"/>
  </defs>
  <g fill="none" fill-rule="evenodd">
    <path fill="#000" fill-rule="nonzero" d="M58.41.87c-.586 0-.89.403-1.03.868L53.704 12.69 50.086 1.765c-.166-.518-.528-.894-1.114-.894h-.113c-.554 0-.889.376-1.055.894L44.158 12.69 40.536 1.795C40.37 1.247 40.007.87 39.45.87c-.639 0-1.084.52-1.084 1.069 0 .202.083.433.139.608l4.37 12.644c.224.662.668 1.01 1.195 1.01h.058c.556 0 .974-.348 1.17-1.01l3.62-10.745 3.588 10.745c.197.662.615 1.01 1.172 1.01h.084c.501 0 .945-.348 1.17-1.01L59.33 2.519c.054-.176.139-.407.139-.609 0-.55-.447-1.04-1.059-1.04m23.427.001c-1.556 0-3.904 1.176-4.963 3.668V1.974c0-.64-.472-1.132-1.088-1.132-.585 0-1.059.521-1.059 1.132l.001 13.078c0 .634.474 1.129 1.088 1.129.613 0 1.06-.52 1.06-1.13v-5.08c0-4.32 2.283-6.494 5.073-6.841.563-.088.95-.52.95-1.13 0-.637-.418-1.129-1.062-1.129m3.035 6.875c.27-2.899 2.128-5.048 4.587-5.048 2.815 0 4.291 2.35 4.511 5.048zM89.516.832c-3.907 0-6.777 3.442-6.777 7.715v.059c0 4.587 3.169 7.716 7.05 7.716 2.404 0 3.99-.893 5.327-2.239a.96.96 0 0 0 .33-.715.94.94 0 0 0-.928-.948c-.247 0-.438.114-.602.256-1.04 1.004-2.32 1.721-4.07 1.721-2.518 0-4.675-1.806-4.973-5.016H95.09c.516 0 .985-.431.985-1.036 0-3.93-2.38-7.513-6.558-7.513M70.1 10.522c0 2.367-2.17 4.043-4.81 4.043-1.948 0-3.614-1.098-3.614-2.975v-.058c0-1.876 1.503-3.09 4.197-3.09 1.75 0 3.17.318 4.228.635zM66.013.874c-1.833 0-2.901.212-4.317.85-.391.18-.584.467-.584.927 0 .52.446.954.947.954.109 0 .249-.03.385-.088 1.06-.49 1.902-.681 3.348-.681 2.694 0 4.283 1.389 4.283 4.074v.522c-1.282-.378-2.587-.638-4.424-.638-3.64 0-6.143 1.678-6.143 4.826v.058c0 3.063 2.699 4.65 5.37 4.652 2.525 0 4.194-1.212 5.197-2.572v1.425c0 .577.414 1.04 1.023 1.04.587 0 1.032-.464 1.032-1.098V6.883c0-1.908-.501-3.352-1.476-4.363C69.6 1.421 68.041.874 66.013.874"/>
    <g transform="translate(0 .316)">
      <mask id="b" fill="#fff">
        <use xlink:href="#a"/>
      </mask>
      <path fill="#000" fill-rule="nonzero" d="M32.315.236c-2.803 0-4.559 2.016-4.559 2.016C26.824.995 25.537.239 23.361.239c-2.297 0-4.307 2.013-4.307 2.013C18.12.995 16.531.239 15.214.239c-2.035 0-3.652.93-4.637 3.274l-2.914 7.135-3.738-9.155C3.455.42 2.291-.066 1.205.436.115.939-.285 2.192.206 3.265L4.77 13.57c.718 1.615 1.474 2.461 2.893 2.461 1.516 0 2.177-.921 2.894-2.461 0 0 3.98-9.004 4.02-9.098a.58.58 0 0 1 .573-.383c.342.002.63.285.63.667v8.805c0 1.357.724 2.47 2.118 2.47s2.145-1.113 2.145-2.47V6.356c0-1.39.959-2.292 2.265-2.292s2.175.935 2.175 2.292v7.205c0 1.357.727 2.47 2.118 2.47s2.15-1.113 2.15-2.47V6.356c0-1.39.954-2.292 2.26-2.292 1.304 0 2.177.935 2.177 2.292v7.205c0 1.357.726 2.47 2.119 2.47 1.391 0 2.147-1.113 2.147-2.47v-8.2c0-3.014-2.333-5.125-5.139-5.125" mask="url(#b)"/>
    </g>
    <path fill="#000" fill-rule="nonzero" d="M99.463 2.69c0 .826-.626 1.516-1.438 1.516-.822 0-1.441-.68-1.441-1.507v-.01c0-.822.626-1.514 1.44-1.514.823 0 1.439.68 1.439 1.51zM98.025.831c-.99 0-1.777.85-1.777 1.857v.013c0 1.01.773 1.848 1.777 1.848.995 0 1.78-.849 1.78-1.86v-.008c0-1.01-.777-1.85-1.78-1.85"/>
    <path fill="#000" fill-rule="nonzero" d="M98.394 2.377c0 .153-.101.253-.286.253h-.385v-.516h.378c.184 0 .293.09.293.257zm-.265-.616h-.593a.194.194 0 0 0-.192.198v1.41c0 .109.086.196.192.196s.188-.086.188-.197V2.98h.303l.37.485c.044.057.1.102.185.102a.18.18 0 0 0 .18-.182c0-.06-.024-.1-.062-.15l-.261-.332c.207-.091.343-.263.343-.545v-.005a.57.57 0 0 0-.15-.408c-.108-.118-.28-.183-.503-.183"/>
  </g>
</svg>
